X:1
T:Wherewithal shall a young man - Nares
T:#
%%score 1 2 { ( 3 4 ) | 5 }
L:1/8
Q:1/4=52
M:4/4
K:Eb
V:1 treble nm="Soprano I" snm="S1"
V:2 treble nm="Soprano II" snm="S2"
V:3 treble nm="Midi_20"
V:4 treble 
V:5 bass 
V:1
"^Wherewithal shall a young man""^Larghetto""^Psalm 119:9,35,44""^James Nares\n(1715-1783)" z8 | %1
w: |
 z8 | z2 GG c2 de | (B=A)Bc{Bc} (d2{d} c>B) | B2 z2 z4 | z8 | z2 GG (ce) (d/c/) (B/=A/) | %7
w: |Ev'n by ru- ling him-|self * af- ter * * *|word.||Ev'n by ru- * ling * him\- *|
 (G^F)Gc (B2{B} =A>G) | G2 z2 z2!f! E>F | G2 e_d (cA) (BG) | A2 G2 (GF)!mf!BB | (B4- B_d)cB | %12
w: self * af- ter God's * *|word. Where- with-|al shall a young * man *|cleanse his way? * Ev'n by|ru\- * * ling him-|
 A3 A (Ac)BA | G2 GB (e4- | ed)cB (AF)GA | (G2 F>E) E2 GB | (e4- ed)cB | (AF)GA (G2{G} F>E) | %18
w: self, by ru\- * ling him-|self, ev'n by ru\-|* * ling him- self * af- ter|God's * * word, ev'n by|ru\- * * ling him-|self * af- ter God's * *|
 E4 !fermata!z4 ||[M:3/4][Q:1/4=66] z6 |[M:3/4][Q:1/4=66][Q:1/4=66][Q:1/4=66] z6 | z6 | z6 | %23
w: word.|||||
"^Solo" G2 c2 =B2 | c3 e d2 | c3 c BA | (GF) E2 B2 | e2 B2 c2 | (G>=A) TA4 | B4 z2 | d2 G2 z d | %31
w: Make me to|go in the|path of thy com-|mand\- * ments, for|there- in is|my * de-|sire,|there- in is|
 (3(edc B2) =A2 | G4 z2 | B2 (AG) (AB) | c2 d2 e2 | F3 c BA | (GF) E2 G2 | c2 G2 A2 | %38
w: my * * * de-|sire.|Make me * to *|go in the|path of thy com-|mand\- * ments, for|there- in is|
 =E2 (F3 G/A/) |{A} G4 z2 | c2 F2 z c | (_dG) (A2 G2) | F6 | B3 c B2 | e2 c2 G2 |{GB} A3 F BA | %46
w: my de\- * *||there- in is|my * de\- *|sire.|Make me to|go in the|* of thy com-|
 (GF) E2 c2 | c2 =B2 c2 | (d>e f2) e2 | (e2 d2) z2 | c2 G2 z B | (AF E2){E} D2 | C4 z2 | z6 | z6 | %55
w: mand\- * ments, for|there- in is|my * * de-|sire, *|there- in is|my * * *|sire.|||
 z6 ||[M:4/4]"^Largo"[Q:1/4=42] B2 Bc{Bc} _d2 (dc) | (cB) (BA) (A G2) z | =A2 BB e2 de | %59
w: |So shall I * way *|keep * thy * law, *|yea, ev'n for e- ver and|
 (d2 c>B) B2 z B |[M:4/4] B8- | B4 B2 z2 | B2 e (d/c/) B2 AG | %63
w: e\- * * ver, for|e\-|* ver,|yea, ev'n for * e- ver and|
[Q:1/4=42][Q:1/4=42][Q:1/4=42] (G2 F2) E4 | B2{f} e (d/c/) (Bc/B/) cA | (G2 TF2) E4 |] %66
w: e\- * ver,|yea, * for * e\- * * ver and|e\- * ver.|
V:2
 z2 B>B B2 AG | (AB/c/) B2 E2 (FG/A/) |{A} G2 z2 z4 | z8 | z2 B>B (B_d) c (3(B/A/G/) | %5
w: Where- with- al shall a|young * * man cleanse his * *|||Where- with- al * shall a * *|
{B} A2 (GF) B2 (FG/A/) |{A} G2 z2 z4 | z8 | z2!f! B>B B4- | B2 cB (AF) (GE) | F2 E2 (ED) z2 | %11
w: * man * cleanse his * *|||Where- with- al|* shall a young * man *|cleanse his way? *|
 z2!mf! GF (=EF/G/) AG | F3 E (DE/F/) GF | E2 z2 z2 B_d | (cB)AG (FD)EF | (E2 D2) E2 z2 | %16
w: Ev'n by ru\- * * ling him-|self, by ru- * * ling him-|self, ev'n by|ru\- * ling him- self * af- ter|God's * word,|
 z2 B_d (cB)AG | (FD)EF (E2 D2) | E4 !fermata!z4 ||[M:3/4] z6 |[M:3/4] z6 | z6 | z6 | z6 | z6 | %25
w: ev'n by ru\- * ling him-|self * af- ter God's *|word.|||||||
 z6 | z6 |[M:3/4] z6 | z6 | z6 | z6 | z6 | z6 | z6 |[M:3/4] z6 | z6 | z6 | z6 | z6 | z6 | z6 | %41
w: ||||||||||||||||
[M:3/4] z6 | z6 | z6 | z6 | z6 | z6 | z6 |[M:3/4] z6 | z6 | z6 | z6 | z6 | z6 | z6 | z6 || %56
w: |||||||||||||||
[M:4/4] G2 GA B2 (BA) | (AG) (GF) (F E2) z | F2 FF (G=A)BB | (B2 =A2) B2 z2 |[M:4/4] D2 EE F2 G2 | %61
w: So shall I al- way *|keep * thy * law, *|yea, ev'n for e\- * ver and|e\- * ver.|So shall I al- way|
{FG} A2 G2 (G F2) z | G2 GA G2 FE | (E2 D2) E4 | G2 GA (GA/G/) AF | (E2 D2) E4 |] %66
w: * thy law, *|yea, ev'n for e- ver and|e\- * ver,|yea, ev'n for e\- * * ver and|e\- * ver.|
V:3
 [G,B,E]2 [GB]2 [GB]2 [FA][EG] | [FA]2 [GB]2 E2 FG/A/ | AG [EG]2 [Gc]2 [Fd][Ee] | %3
 B=A[FB][Bc] [Bd]2{d} [Ac]2 | B2 B2 B _d c B |{B} A3 F B2 F>A | AG G2 ce[Gc]=A | %7
 [GB][^F=A][Gd][Ac] [GB]2 [DFA]2 | [B,G]2 B2 B4 | [GB]2 [ce][B_d] [Ac][FA][GB][EG] | %10
 .[B,FA]2 .[B,EG]2 [EG][DF]BB | B4- B_dcB | Acfe [FA=d]4 | [EGe]2 GB e4 | %14
 [ce][B=d][Ac][GB] [FA][DF][EG][FA] | [EG]2 [B,DF]2 [G,E]2 GB | e4 [ce][B=d][Ac][GB] | %17
 [FA][Fd][Ge][Af] [Ge]2 [Fd]2 | [EGe]4 !fermata!z4 ||[M:3/4]"^poco allegretto" G2 c2 =B2 | %20
[M:3/4] c2 egfe | dc=Bfed | ge c2 =B2 | [EGc]2 c2 [G=B]2 | c3 e [F=Bd]2 | c4 BA | GF E2 [DB]2 | %27
 [Ee]2 B2 c2 | G2 =A4 | B6 | d2 G2 gd | e>c [GB]2 [^F=A]2 | [B,G]3 [Dc][EB][D_A] | [GB]6 | [CEc]6 | %35
 F3 cB_A | G2 E2 G2 | c2 G2 A2 | [C=E]2 c3 A | G4 AB | [Fc]2 F2 fc | [FG_d]2 [FA]2 [B,=EG]2 | %42
 [A,F]4 GA | B4 [FB]2 | e2 c2 G2 | A3 F B2 | G2 E2 c2 | c2 =B2 c2 | d2 f2 [ce]2 | [ce]2 [=Bd]2 z2 | %50
 [Gc]2 G3 B | AF E2 [=B,D]2 | CEG[Gc][F=B][Ec] | dc=Bc_BA | Gc[Ge][Fd][Ec][D=B] | [CEc]6 || %56
[M:4/4] [GB]3 [Ac] [B_d]3 [Ac] | [Ac][GB][GB][FA] [FA][EG] z2 | [F=A]2 [FB]2 e2 de | %59
 d3 c [DB]2 z B |[M:4/4] B8- | B6 z2 | [GB]2 [Ge][Ac] [GB]2 [FA][EG] | %63
 [EG]2 [DF]2 E2- E/[DF]/[EG]/[FA]/ | [GB]2 ed/c/ [GB]2 [Ac][FA] | [EG]2 [A,DF]2 [G,E]4 |] %66
V:4
 x8 | x4 E2- ED | E2 x6 | F2 x2 x4 | B2 B_A G2- [CG]2 | [CF]4 F2 F2 | E2 GF E2 x2 | x8 | %8
 x4 x2 E>F | x8 | x8 | z AGF =EF/G/ AG | F2 F2 x4 | x4 z2 B_d | x8 | x8 | z2 B_d x4 | x8 | x8 || %19
[M:3/4] E4 G2 |[M:3/4] G6 | G3 c2 =B | c2 E2 D2 | x6 | G4 x2 | E2 A2 F2 | B,2 x4 | x2 G4 | %28
 B,3 E C2 | B,3 GFE | D4 G2 | G2 x4 | x6 | E4 _D2 | x6 | [CE]2 D4 | [B,E]4 GF | E6 | x2 [CF]4 | %39
 =E6 | C4 F2 | x6 | x4 C2 | [B,F]2 D2 x2 | E2 G2 E2 | C2 B,2 D2 | B,4 G2 | F4 E2 | G4 G2 | G4 x2 | %50
 C4 C2 | C4 x2 | x6 | [DG]3 [CE]ED | E2 x4 | x6 ||[M:4/4] x8 | x8 | x4 G=A B2 | B2 =A2 x4 | %60
[M:4/4] D2 E2 F2 G2 | A2 G2 [EG][DF] x2 | x8 | x8 | x2 GA x4 | x8 |] %66
V:5
 [E,,E,]8 | [E,,E,]3 D, C,G,,A,,B,, | E,,2 E,3 EDC | FF,D,E, F,E,F,F,, | B,,_A,G,F, =E,4 | %5
 F,3 _E, D,C,D,B,, | E,>F,E,D, C,2 E,2 | D,>C,B,,C, D,C,D,D,, | G,,4 G,B,/A,/ G,F, | [E,,E,]8 | %10
 .[D,,D,]2 .[E,,E,]2 [B,,B,]3 A, | G,F,E,_D, C,2 C,,2 | F,E,=D,C, [B,,,B,,]4 | %13
 E,3 D, C,/C/B,/A,/ G,E, | A,2 A,,2 B,,2 E,2 | B,2 B,,2 E,3 D, | C,/C/B,/A,/ G,E, A,2 A,,2 | %17
 B,,2 E,2 B,,4- | [E,,B,,E,]4 !fermata!z4 ||[M:3/4] C,3 E,D,F, |[M:3/4] E,D,C,EDC | %21
 =B,=A,G,_A,G,F, | E,C, G,2 G,,2 | C,3 E,D,G, | E,D, C,2 G,2 | A,2 C,2 D,2 | E,3 CB,A, | G,F, E,4 | %28
 E,2 C,2 F,2 | D,>G,F,E,D,C, | B,,=A,,B,,G,,A,,B,, | C,2 D,2 D,,2 | G,,2 G,_A,G,F, | [E,,E,]6 | %34
 [A,,A,]6 | =A,2 B,2 B,,2 | E,3 F,E,D, | C,6 | C,B,,A,,G,,A,,F,, | C,2 CDCB, | A,G,A,F,G,A, | %41
 B,2 C2 C,2 | F,,C,F,G,F,E, | D,2 B,2 D,2 | C,2 E,2 C,2 | F,2 D,2 B,,2 | E,3 D,E,C, | D,4 C,2 | %48
 =B,,4 C,2 | G,,2 G,A,G,F, | =E,D,E,C,D,E, | F,2 G,2 G,,2 | C,3 EDC | =B,=A,G,_A,G,F, | %54
 E,C, G,2 G,,2 | [C,,C,]6 ||[M:4/4] [E,,E,]8- | [E,,E,]6 E2- | E2 D2 C2 B,G, | %59
 F,E,F,F,, B,,F,, B,,,2 |[M:4/4] z B,G,B, D,B,E,B, | F,D,E,E,, B,,>C, B,,/A,,/G,,/F,,/ | [E,,E,]8 | %63
 B,,4 C,>C B,/A,/G,/F,/ | [E,,E,]6 [A,,A,]2 | [B,,B,]2 [B,,,B,,-]2 [E,,B,,E,]4 |] %66

